X: 126
T: Bonnie Bunch of Roses
N:"Moderate" "collected by Ennis"
B:O'Neill's 126
Z:Transcribed by henrik.norbeck@mailbox.swipnet.se
M:C
L:1/8
K:D
A2|d3 e f2 e2|d3 c A2 F2|G2 AB cABG|A2 D2 D2:|
FG|A2 A2 c>AG>B|A2 A>G A2 d>e|f2 g2 a>g fe|d>c AG A2 d>e|
f2 g2 a>g fe|d3 e f2 AF|G2 AB cABG|A2 D2 D2||


